X: 17236
T: Her Scattered Gold
R: reel
M: 4/4
K: Dmajor
z|B2 BA BAFB|AFEF DEFA|B4 c3 d|dcBc BAFE|
B2 BA BAFB|AFEF DEFA|dfec dBAG|FAEA D3:|
A|d2 fd ed f2|fgaf gfef|d2 fd gd f2|BAGB AFFA|
d2 fd ed f2|fgaf gfef|fdec dBAG|FAEA D3:|

